packages/gestalt-icons-android/vr-theme/ic_vr_text_gestalt.svg

<svg width="24" height="24" viewBox="0 0 24 24" fill="none" xmlns="http://www.w3.org/2000/svg">
<path fill-rule="evenodd" clip-rule="evenodd" d="M8 2V4H9C9.28635 4 9.48667 4.28313 9.39137 4.55316L4.72265 17.7812C4.46464 18.5111 3.77423 19 3 19H2V21H9V19H6.4134L7.82516 15H16.1748L17.5866 19H15V21H22V19H21C20.2255 19 19.5351 18.5116 19.2774 17.7812L14.6086 4.55316C14.5139 4.28335 14.7139 4 15 4H16V2H8ZM11.7075 4H12.2925L15.469 13H8.53104L11.7075 4Z" fill="black"/>
</svg>

<svg xmlns="http://www.w3.org/2000/svg" width="24" height="24"><path d="M8 2v2h1c.29 0 .49.28.4.55L4.71 17.78A1.8 1.8 0 0 1 3 19H2v2h7v-2H6.41l1.42-4h8.34l1.42 4H15v2h7v-2h-1c-.77 0-1.46-.49-1.72-1.22L14.6 4.55a.4.4 0 0 1 .39-.55h1V2zm3.7 2h.6l3.17 9H8.53z"/></svg>
